X:1801
T:Johnny Groat's House
P:Johnny Groat's House
C:Niel Gow
R:Reel (8x32)
B:RSCDS 18-1
Z:Anselm Lingnau <anselm@strathspey.org>
M:2/2
L:1/8
K:C
A|"C"Gccd e2dc|"G"BGdc BcdB|"C"Gccd e2dc|Gc"G7"Bd "C"ecc A|
  "C"Gccd e2dc|"G"BGdc BcdB|"C"Gccd e2dc|GcBc "G"dB"C"c||
e|"C"gfeg "Dm"fagf|"C"ecgc "G"Bcdf|"C"gfeg "G"dagf|"C"ge"Dm"fd "G"BG"C"ce|
  "C"gfeg "G"fagf|"C"ecgc "G"Bcdf|"C"ecBc GcEc|GE"G7"FD B,G,"C"C|]

